img/icons/socials-instagram.svg

<svg width="32" height="32" viewBox="0 0 32 32" fill="none" xmlns="http://www.w3.org/2000/svg">
<g clip-path="url(#clip0_12756_2227)">
<path d="M18.6666 15.9987C18.6666 17.4715 17.4727 18.6654 15.9999 18.6654C14.5271 18.6654 13.3333 17.4715 13.3333 15.9987C13.3333 14.5259 14.5271 13.332 15.9999 13.332C17.4727 13.332 18.6666 14.5259 18.6666 15.9987Z" fill="white"/>
<path d="M23.1621 10.5823C23.0149 10.1833 22.78 9.82227 22.4749 9.52588C22.1785 9.2207 21.8176 8.98584 21.4185 8.83862C21.0947 8.71289 20.6084 8.56323 19.7126 8.52246C18.7437 8.47827 18.4531 8.46875 16 8.46875C13.5466 8.46875 13.2561 8.47803 12.2874 8.52222C11.3916 8.56323 10.905 8.71289 10.5815 8.83862C10.1824 8.98584 9.82129 9.2207 9.52515 9.52588C9.21997 9.82227 8.98511 10.1831 8.83765 10.5823C8.71191 10.906 8.56226 11.3926 8.52148 12.2883C8.47729 13.2571 8.46777 13.5476 8.46777 16.001C8.46777 18.4541 8.47729 18.7446 8.52148 19.7136C8.56226 20.6094 8.71191 21.0957 8.83765 21.4194C8.98511 21.8186 9.21973 22.1794 9.5249 22.4758C9.82129 22.781 10.1821 23.0159 10.5813 23.1631C10.905 23.2891 11.3916 23.4387 12.2874 23.4795C13.2561 23.5237 13.5464 23.533 15.9998 23.533C18.4534 23.533 18.7439 23.5237 19.7124 23.4795C20.6082 23.4387 21.0947 23.2891 21.4185 23.1631C22.2197 22.854 22.853 22.2207 23.1621 21.4194C23.2878 21.0957 23.4375 20.6094 23.4785 19.7136C23.5227 18.7446 23.532 18.4541 23.532 16.001C23.532 13.5476 23.5227 13.2571 23.4785 12.2883C23.4377 11.3926 23.2881 10.906 23.1621 10.5823ZM16 20.7185C13.3943 20.7185 11.282 18.6064 11.282 16.0007C11.282 13.395 13.3943 11.283 16 11.283C18.6055 11.283 20.7178 13.395 20.7178 16.0007C20.7178 18.6064 18.6055 20.7185 16 20.7185ZM20.9043 12.199C20.2954 12.199 19.8018 11.7053 19.8018 11.0964C19.8018 10.4875 20.2954 9.9939 20.9043 9.9939C21.5132 9.9939 22.0068 10.4875 22.0068 11.0964C22.0066 11.7053 21.5132 12.199 20.9043 12.199Z" fill="white"/>
<path d="M16 0C7.16479 0 0 7.16479 0 16C0 24.8352 7.16479 32 16 32C24.8352 32 32 24.8352 32 16C32 7.16479 24.8352 0 16 0ZM25.1321 19.7878C25.0876 20.7659 24.9321 21.4336 24.7051 22.0181C24.2278 23.2522 23.2522 24.2278 22.0181 24.7051C21.4338 24.9321 20.7659 25.0874 19.7881 25.1321C18.8083 25.1768 18.4954 25.1875 16.0002 25.1875C13.5049 25.1875 13.1921 25.1768 12.2122 25.1321C11.2344 25.0874 10.5664 24.9321 9.98218 24.7051C9.3689 24.4744 8.81372 24.1128 8.35474 23.6453C7.88745 23.1865 7.52588 22.6311 7.29517 22.0181C7.06812 21.4338 6.9126 20.7659 6.86816 19.7881C6.823 18.8081 6.8125 18.4951 6.8125 16C6.8125 13.5049 6.823 13.1919 6.86792 12.2122C6.91235 11.2341 7.06763 10.5664 7.29468 9.98193C7.52539 9.3689 7.88721 8.81348 8.35474 8.35474C8.81348 7.88721 9.3689 7.52563 9.98193 7.29492C10.5664 7.06787 11.2341 6.9126 12.2122 6.86792C13.1919 6.82324 13.5049 6.8125 16 6.8125C18.4951 6.8125 18.8081 6.82324 19.7878 6.86816C20.7659 6.9126 21.4336 7.06787 22.0181 7.29468C22.6311 7.52539 23.1865 7.88721 23.6455 8.35474C24.1128 8.81372 24.4746 9.3689 24.7051 9.98193C24.9324 10.5664 25.0876 11.2341 25.1323 12.2122C25.177 13.1919 25.1875 13.5049 25.1875 16C25.1875 18.4951 25.177 18.8081 25.1321 19.7878Z" fill="white"/>
</g>
<defs>
<clipPath id="clip0_12756_2227">
<rect width="32" height="32" fill="white"/>
</clipPath>
</defs>
</svg>

<svg width="32" height="32" fill="none" xmlns="http://www.w3.org/2000/svg"><g clip-path="url(#a)" fill="#fff"><path d="M18.667 15.999a2.667 2.667 0 1 1-5.334 0 2.667 2.667 0 0 1 5.334 0Z"/><path d="M23.162 10.582a2.847 2.847 0 0 0-.687-1.056 2.845 2.845 0 0 0-1.056-.687c-.324-.126-.81-.276-1.706-.317-.97-.044-1.26-.053-3.713-.053-2.453 0-2.744.009-3.713.053-.895.041-1.382.19-1.706.317-.399.147-.76.382-1.056.687-.305.296-.54.657-.687 1.056-.126.324-.276.81-.317 1.706-.044.97-.053 1.26-.053 3.713 0 2.453.01 2.744.053 3.713.041.895.19 1.382.317 1.705.147.4.382.76.687 1.057.296.305.657.54 1.056.687.324.126.81.276 1.706.317.97.044 1.26.053 3.713.053 2.453 0 2.744-.01 3.712-.053.896-.041 1.383-.19 1.707-.317a3.043 3.043 0 0 0 1.743-1.744c.126-.323.276-.81.317-1.705.044-.97.053-1.26.053-3.713 0-2.453-.01-2.744-.053-3.713-.041-.895-.19-1.382-.317-1.706ZM16 20.718a4.718 4.718 0 1 1 0-9.435 4.718 4.718 0 0 1 0 9.435Zm4.904-8.519a1.103 1.103 0 1 1 0-2.205 1.103 1.103 0 0 1 0 2.205Z"/><path d="M16 0C7.165 0 0 7.165 0 16s7.165 16 16 16 16-7.165 16-16S24.835 0 16 0Zm9.132 19.788c-.044.978-.2 1.646-.427 2.23a4.698 4.698 0 0 1-2.687 2.687c-.584.227-1.252.382-2.23.427-.98.045-1.293.055-3.788.055s-2.808-.01-3.788-.055c-.978-.045-1.646-.2-2.23-.427a4.501 4.501 0 0 1-1.627-1.06 4.504 4.504 0 0 1-1.06-1.627c-.227-.584-.382-1.252-.427-2.23-.045-.98-.056-1.293-.056-3.788s.011-2.808.056-3.788c.044-.978.2-1.646.427-2.23a4.5 4.5 0 0 1 1.06-1.627 4.5 4.5 0 0 1 1.627-1.06c.584-.227 1.252-.382 2.23-.427.98-.045 1.293-.056 3.788-.056s2.808.011 3.788.056c.978.045 1.646.2 2.23.427.613.23 1.168.592 1.627 1.06.468.459.83 1.014 1.06 1.627.227.584.383 1.252.427 2.23.045.98.055 1.293.055 3.788s-.01 2.808-.055 3.788Z"/></g><defs><clipPath id="a"><path fill="#fff" d="M0 0h32v32H0z"/></clipPath></defs></svg>
